X:1
T:I’ll celebrate thy praises, Lord
T:Joseph Stephenson
T:p43, Church Harmony Sacred to Devotion, 4th ed. London: [c1763-1771]
T:This edition by Edmund Gooch released into the public domain, October 2013.
T:I’ll celebrate thy praises, Lord
T:Ps. 30th.
C:Joseph Stephenson
Z:p43, Church Harmony
Z:Sacred to Devotion, 4th ed.
Z:London: [c1763-1771]
%%score [ 1 2 3 4 ]
L:1/8
M:3/2
K:C
V:1 treble nm="SOPRANO" snm="S."
V:2 treble nm="ALTO" snm="A."
V:3 treble-8 transpose=-12 nm="TENOR" snm="T."
V:4 bass nm="BASS" snm="B."
V:1
 A4 | A8 B4 | (c6 d2) (e3 d) | (c3 B A4) B4 | B8 B4 | (A6 B2) c4 | (d6 c2) B4 | A8 A4 | %8
w: Thus|to his|courts, _ ye _|saints _ _ of|his, With|songs _ of|praise _ re-|pair; With|
w: I’ll|ce- le-|brate _ thy _|prai- * * ses,|Lord, Who|didst _ thy|pow’r _ em-|ploy To|
w: In|my dis-|tress _ I _|cried _ _ to|thee, Who|kind- * ly|didst _ re-|lieve, And|
 (A4 B4) c4 | d8 (e3 d) | (c4 B4) A4 | B8 B4 | (A6 B2) c4 | (B3 c B2 A2) ^G4 | A8 |] %15
w: me _ com-|me- mo- *|rate _ his|truth, And|pro- * vi-|den- * * * tial|care.|
w: raise _ my|droop- ing _|head, _ and|check My|foes’ _ in-|sul- * * * ting|joy.|
w: from _ the|grave’s ex- *|pec- * ting|jaws My|hope- * less|life _ _ _ re-|trieve.|
V:2
 E4 | ^F8 E4 | A8 E4 | (E3 D C4) ^F4 | E8 E4 | E8 A4 | F4 E8 | E8 E4 | (C4 D4) E4 | G8 ^G4 | %10
w: Thus|to his|courts, ye|saints _ _ of|his, With|songs of|praise re-|pair; With|me _ com-|me- mo-|
w: I’ll|ce- le-|brate thy|prai- * * ses,|Lord, Who|didst thy|pow’r em-|ploy To|raise _ my|droop- ing|
w: In|my dis-|tress I|cried _ _ to|thee, Who|kind- ly|didst re-|lieve, And|from _ the|grave’s ex-|
 (E4 EF G2) A4 | ^G8 G4 | E8 A4 | F4 E8 | E8 |] %15
w: rate _ _ _ his|truth, And|pro- vi-|den- tial|care.|
w: head, _ _ _ and|check My|foes’ in-|sul- ting|joy.|
w: pec- * * * ting|jaws My|hope- less|life re-|trieve.|
V:3
 A4 | ^F8 ^G4 | (A6 B2) (c3 d) | (e6 f2) ^d4 | e8 (e3 d) | (c6 B2) A4 | (B6 A2) ^G4 | A8 c4 | %8
w: Thus|to his|courts, _ ye _|saints _ of|his, With _|songs _ of|praise _ re-|pair; With|
w: I’ll|ce- le-|brate _ thy _|prai- * ses,|Lord, Who _|didst _ thy|pow’r _ em-|ploy To|
w: In|my dis-|tress _ I _|cried _ to|thee, Who _|kind- * ly|didst _ re-|lieve, And|
 (e4 d4) c4 | B8 ^G4 | (A4 B4) (c2 d2) | e8 e4 | (c3 d c2 B2) A4 | (d3 e d2 c2) B4 | A8 |] %15
w: me _ com-|me- mo-|rate _ his _|truth, And|pro- * * * vi-|den- * * * tial|care.|
w: raise _ my|droop- ing|head, _ and _|check My|foes’ _ _ _ in-|sul- * * * ting|joy.|
w: from _ the|grave’s ex-|pec- * ting _|jaws My|hope- * * * less|life _ _ _ re-|trieve.|
V:4
 A,4 | A,8 E,4 | A,,8 (A,3 B,) | C8 B,4 | E,8 E,4 | (A,6 G,2) F,4 | D,4 E,8 | A,,8 A,4 | %8
w: Thus|to his|courts, ye _|saints of|his, With|songs _ of|praise re-|pair; With|
w: I’ll|ce- le-|brate thy _|prai- ses,|Lord, Who|didst _ thy|pow’r em-|ploy To|
w: In|my dis-|tress I _|cried to|thee, Who|kind- * ly|didst re-|lieve, And|
"^Notes:The alto part is notated in the alto clef in the source. The opening words of the first verse of the text are given in the source,as ‘I’ll cellebrate thy Praises Lord &c.’. The remainder of this verse, and three subsequent verses, have been given here.The sharp on the alto G on the third beat of bar 9 has been added editorially: this note has no accidental in the source." (C4 B,4) A,4 | %9
w: me _ com-|
w: raise _ my|
w: from _ the|
 G,8 E,4 | (A,4 G,4) F,4 | E,8 E,4 | (A,3 B, A,2 G,2) F,4 | D,4 E,8 | A,,8 |] %15
w: me- mo-|rate _ his|truth, And|pro- * * * vi-|den- tial|care.|
w: droop- ing|head, _ and|check My|foes’ _ _ _ in-|sul- ting|joy.|
w: grave’s ex-|pec- * ting|jaws My|hope- * * * less|life re-|trieve.|

